X:262
T:Aprille Pazzo
M:6/8
C:© Paul Gitlitz 2011
K:G
"G"gba g2f|g2d B2d|gba g2f|g2^g "D"a3|!
"D"A2^G A2B|"C"c2B A2^G|"D"A2B "C"c2^c|"D7"d2e "D"f2d|!
"G"gba g2f|g2d B2d|gba g2f|g2^g "D"a3|!
"D"A2^G A2B|"C"c2B A2G|"D"F2A D2F|"G"G3 G,3||!
"D"F2A D2A|F2G AGF|"G"G2B D2B|G2A BAG|!
"A7"^c2e A2e|^c2d edc|"D"d^cd ede|fg^g "D7"a3|!
"G"gba g2f|g2f e2d|"C"ced c2B|c2B A2G|!
"D"FAG F2E|DED "C"C2D|"D"B,CB, "D7"A,2D|"G"G,6||
